X: 1
T: String Quartet in E\b Major opus 33 no 2 mvt 3
C: Franz Joseph Haydn
%%abc-version 2.0
%%abcx-abcm2ps-target-version 5.9.1 (29 Sep 2008)
%%abc-creator hum2abc beta
%%abcx-conversion-date 2021/02/14 14:38:31
%%abc-copyright Copyright (c) 1994, 2000 Center for Computer Assisted Research in the Humanities
%%abc-edited-by Frances Bennion
%%abcx-initial-encoding-date 1997/04/15
%%gracespace 0 6 6
%%humdrum-veritas 1096471384
%%humdrum-veritas-data 1756258345
%%linebreak <none>
%%barnumbers 0
L: 1/16
M: 3/4
N: Derived from op33n2-03.krn
Q: "Largo sostenuto"
%%staves [1 2 3 4]
V: 1
V: 2
V: 3 clef=alto
V: 4 clef=bass
K: Bb
[V:1]z12 [I:setbarnb2]|
[V:2]z12 |
[V:3]F4 G4 F3B |
[V:4]D4 E4 D4 |
[V:1]z12 |
[V:2]z12 |
[V:3]E8 D4 |
[V:4]G,4 A,4 B,4 |
[V:1]z12 |
[V:2]z12 |
[V:3]C4 E4 D3C |
[V:4]F,4 C4 B,4 |
[V:1]z12 |
[V:2]z12 |
[V:3]C8 z4 |
[V:4]F,8 z4 |
[V:1]z12 |
[V:2]z12 |
[V:3]B,4 C4 E3G |
[V:4]D,4 E,4 C,4 |
[V:1]z12 |
[V:2]z12 |
[V:3]A,8 B,3B |
[V:4]F,4 E,4 D,4 |
[V:1]z12 |
[V:2]z12 |
[V:3]G2FE D2F2 A,2C2 |
[V:4]E,4 F,4 F,,4 |
[V:1]z12 |
[V:2]z12 |
[V:3]B,4 z8 |
[V:4]B,,4 D,4 F,4 |
[V:1]f4 g4 f3b |
[V:2]d4 e4 d4 |
[V:3]z12 |
[V:4]B,,4 z8 |
[V:1]e8 d4 |
[V:2]G4 A4 B4 |
[V:3]z12 |
[V:4]z12 |
[V:1]c4 e4 d3c |
[V:2]A4 c4 B4 |
[V:3]z12 |
[V:4]F,=E,F,E, F,E,F,E, F,E,F,E, |
[V:1]c8 z4 |
[V:2]F8 z4 |
[V:3]z12 |
[V:4]F,=E,F,E, F,E,F,E, F,^F,G,_E, |
[V:1]B4 c4 e3g |
[V:2]D4 E4 C4 |
[V:3]z12 |
[V:4]D,4 z8 |
[V:1]A8 B3b |
[V:2]F4 E4 D4 |
[V:3]z12 |
[V:4]z12 |
[V:1]g2fe d2f2 A2c2 |
[V:2]E4 F4 F4 |
[V:3]z12 |
[V:4]z12 |
[V:1]B4 z8 |
[V:2]B,A,B,A, B,A,B,A, B,A,B,C |
[V:3]z12 |
[V:4]z12 |
[V:1][g2B2]z2 [^f2c2]z6 |
[V:2][D2d2]z2 [e2E2]z6 |
[V:3]D2z2 C2z6 |
[V:4]B,2z2 A,2z6 |
[V:1][c'2d2]z2 [b2d2]z6 |
[V:2][a2c2]z2 [B2g2]z6 |
[V:3]D2z2 D2z6 |
[V:4]^F,2z2 G,2z6 |
[V:1]b4 >a4 g2f2 |
[V:2]_d4 >c4 B2A2 |
[V:3]z12 |
[V:4]z4 =E,2F,2 B,2=B,2 |
[V:1]f4 =e4 z4 |
[V:2]A4 G4 z4 |
[V:3]z12 |
[V:4]C=B,CB, CB,CB, C_B,A,G, |
[V:1]f2f4 f4 f=e |
[V:2]A2A4 A4 AB |
[V:3]C2C4 C4 C2 |
[V:4]F,2F,4 F,4 F,G, |
[V:1]=e2e2 z2e2 z2e2 |
[V:2]B2B2 z2B2 z2B2 |
[V:3]C2C2 z2C2 z2C2 |
[V:4]G,2G,2 z2G,2 z2G,2 |
[V:1]b2b4 b4 ba |
[V:2]g2g4 g4 gf |
[V:3]C2C4 C4 C2 |
[V:4]=E,2E,4 E,4 E,F, |
[V:1]a2a2 z2a2 z2a2 |
[V:2]f2f2 z2f2 z2f2 |
[V:3]C2C2 z2C2 z2C2 |
[V:4]F,2F,2 z2F,2 z2F,2 |
[V:1]d'2d'2 >^c'2d'a bgab |
[V:2]b2b2 >a2b^f gBAG |
[V:3]B,4 B4 z4 |
[V:4]B,,4 B,4 z4 |
[V:1]c'=bc'b c'2(3:2:2z4 z/_b|
[V:2]A^GAG A2z4 z=G |
[V:3]z8 z3C |
[V:4]z8 z3=E, |
[V:1]babg f4 g3f |
[V:2]GFdB A4 B4 |
[V:3]C2D2 C4 =E4 |
[V:4]F,2B,,2 C,8 |
[V:1]d'2d'2 >^c'2d'a bgab |
[V:2]b2b2 >a2b^f gBAG |
[V:3]z12 |
[V:4]B,,4 B,4 z4 |
[V:1]c'=bc'b c'c'd'=e' f'4- |
[V:2]A^GAG Aabg aagf- |
[V:3]z8 zABc |
[V:4]z8 zF,G,A, |
[V:1]f'd'c'b a2c'2 =e2g2 |
[V:2]fbag f2A2 G2B2 |
[V:3]d4 c4 B2=E2 |
[V:4]B,4 C4 C,4 |
[V:1]f=efe fefe f_edc |
[V:2]A4 z8 |
[V:3]F4 z8 |
[V:4]F,4 z8 |
[V:1]BABA BABA BABA |
[V:2]F4 G4 F3B |
[V:3]D4 E4 D4 |
[V:4]z12 |
[V:1]BABd cBcA FBdf |
[V:2]E8 D4 |
[V:3]G,4 A,4 B,4 |
[V:4]z12 |
[V:1](3:2:2f4-f/ec A2<B2 d|
[V:2]C4 E4 D3C |
[V:3]A,4 C4 B,4 |
[V:4]z12 |
[V:1]f=efe fefe f^fga |
[V:2]C8 z4 |
[V:3]F,8 z4 |
[V:4]z12 |
[V:1]bab_a g^fg=f edec |
[V:2]B,4 C4 E3G |
[V:3]D,4 E,4 C,4 |
[V:4]z12 |
[V:1]c=BcB cedc _Bfff |
[V:2]A,8 B,3B |
[V:3]F,4 E,4 D,4 |
[V:4]z12 |
[V:1]e2dc B2d2 c2A2 |
[V:2]G2FE D2F2 A,2C2 |
[V:3]E,4 F,4 F,4 |
[V:4]z12 |
[V:1]B4 z8 |
[V:2]B,4 z8 |
[V:3]B,4 z8 |
[V:4]B,A,B,A, B,A,B,A, B,_A,G,F, |
[V:1]e2e4 e4 ed |
[V:2]G2G4 G4 G_A |
[V:3]B,2B,4 B,4 B,2 |
[V:4]E,2E,4 E,4 E,F, |
[V:1]d2d2 z2d2 z2d2 |
[V:2]_A2A2 z2A2 z2A2 |
[V:3]B,2B,2 z2B,2 z2B,2 |
[V:4]F,2F,2 z2F,2 z2F,2 |
[V:1]_a2a4 a4 ag |
[V:2]f2f4 f4 fe |
[V:3]B,2B,4 B,4 B,2 |
[V:4]D,2D,4 D,4 D,E, |
[V:1]g2g2 z2g2 z2g2 |
[V:2]e2e2 z2e2 z2e2 |
[V:3]B,2B,2 z2B,2 z2B,2 |
[V:4]E,2E,2 z2E,2 z2E,2 |
[V:1]c'2c'2 >=b2c'b c'e'd'c' |
[V:2]G2z2 G2z2 G4 |
[V:3]E2z2 E2z2 E4 |
[V:4]E2z2 E2z2 E4 |
[V:1]c'4 =bc'd'e' f'2zb |
[V:2]_A8 z4 |
[V:3]F8 z4 |
[V:4]D8 z4 |
[V:1]c'2c'2 >=b2c'b c'e'd'c' |
[V:2]G2z2 G2z2 A4 |
[V:3]E2z2 E2z2 F4- |
[V:4]E2z2 E2z2 E4 |
[V:1]baba bc'd'e' f'2zd' |
[V:2]B8 z4 |
[V:3]F8 z4 |
[V:4]D8 z4 |
[V:1]d'c'2<c'2 _d'2<d'2 d'c'b |
[V:2]B2z2 B2z2 B4 |
[V:3]G2z2 G2z2 G4 |
[V:4]E2z2 =E2z2 E4 |
[V:1]bagf f4 =ed'c'e |
[V:2]F4 A4 B4 |
[V:3]F8 G4 |
[V:4]F12- |
[V:1]f2=ef f4 ed'c'e |
[V:2]A8 B4 |
[V:3]F8 G4 |
[V:4]F12- |
[V:1]f4 z8 |
[V:2]A4 z8 |
[V:3]F=EFE FEFE F_EDC |
[V:4]F4 z8 |
[V:1]f4 g4 f3b |
[V:2]D4 E4 D4 |
[V:3]B,A,B,A, B,A,B,A, B,A,B,A, |
[V:4]B,,4 z4 B,,4 |
[V:1]e8 d4 |
[V:2]D4 C4 B,4 |
[V:3]B,A,B,D CB,CA, F,B,DF |
[V:4]G,,4 A,,4 B,,4 |
[V:1]c4 e4 d3c |
[V:2]A,4 C4 B,4 |
[V:3]F4- FECA, B,2D2 |
[V:4]F,,12- |
[V:1]c8 z4 |
[V:2]A,8 z4 |
[V:3]F=EFE FEFE F^FGA |
[V:4]F,,4 z8 |
[V:1]B4 c4 e3g |
[V:2]F4 G8 |
[V:3]BAB_A G^FG=F EDED |
[V:4]D,4 E,4 C,4 |
[V:1]A8 B3b |
[V:2]F8 F2z2 |
[V:3]C=B,CB, CEDC _B,FFF |
[V:4]F,4 E,4 D,4 |
[V:1]g2fe d2f2 A2c2 |
[V:2]z4 >B,4 C2E2 |
[V:3]E2DC B,2D2 C2A,2 |
[V:4]E,4 F,4 F,,4 |
[V:1]B4 z8 |
[V:2]D4 z8 |
[V:3]B,4 z8 |
[V:4]G,,4 z8 |
[V:1]e4 d2z6 |
[V:2]B6 z6 |
[V:3]B,6 z6 |
[V:4]G,4 F,2z6 |
[V:1][_a2B2D2]z2 [E2B2g2]z6 |
[V:2][f2B2D2]z2 [g2E2B2]z6 |
[V:3][B,2F2]z2 [E2G,2]z6 |
[V:4]B,,2z2 E,2z6 |
[V:1]f4 >e4 d2c2 |
[V:2]_A4 >G4 F2E2 |
[V:3]z8 z2G2 |
[V:4]z4 =B,,2C,2 D,2E,2 |
[V:1]B4 A2c2 d2e2 |
[V:2]D4 C4 z4 |
[V:3]F4 >A,4 B,2C2 |
[V:4]F,4 >E,4 D,2C,2 |
[V:1]f4 g4 f3b |
[V:2]BABA BABA BABA |
[V:3]D4 E4 D4 |
[V:4]B,,12 |
[V:1]e8 d4 |
[V:2]BABd cBcA FBdB |
[V:3]D4 C4 B,4 |
[V:4]G,,4 A,,4 B,,4 |
[V:1](3c2e2g2 B4 c3B |
[V:2]G4 D4 E4 |
[V:3]E4 F4 A,4 |
[V:4]E,4 F,4 F,,4 |
[V:1]B4 z4 edeA |
[V:2]D4 z4 G^FGE |
[V:3]B,4 z8 |
[V:4]B,,A,,B,,A,, B,,A,,B,,A,, B,,2B,,2 |
[V:1]BABA B=Bcd edeA |
[V:2]DEDE DDEF G^FGE |
[V:3]F_GFG F2z6 |
[V:4]B,,12- |
[V:1]BABA B=Bcd edeA |
[V:2]DEDE DDEF G^FGE |
[V:3]F_GFG F2z6 |
[V:4]B,,12- |
[V:1]c4 B2z6 |
[V:2]E4 D2z6 |
[V:3]z12 |
[V:4]B,,4 z8 |
[V:1]e4 d2z6 |
[V:2]c4 B2z6 |
[V:3]z12 |
[V:4]z12 |
[V:1]a4 b2z6 |]
[V:2]e4 d2z6 |]
[V:3]C4 D2z6 |]
[V:4]F,4 B,,2z6 |]

